packages/bezier-icons/icons/chat-progress.svg

<svg width="24" height="24" viewBox="0 0 24 24" fill="none" xmlns="http://www.w3.org/2000/svg">
<path fill-rule="evenodd" clip-rule="evenodd" d="M21.1329 17.2474L21.6155 19.1806C21.7873 19.8678 21.591 20.5794 21.0893 21.0811C20.5876 21.5828 19.8787 21.7791 19.1888 21.6074L17.2556 21.1247C16.7921 21.0075 16.304 21.0429 15.8759 21.2229C14.6489 21.7382 13.3483 22 12.0095 22H12.0041C9.34288 22 6.83436 20.9584 4.93933 19.0688C3.04431 17.1766 2.00273 14.668 2 12.0041C2 9.33197 3.03886 6.818 4.92843 4.92843C6.818 3.03885 9.32925 2 12.0014 2H12.0041C14.668 2 17.1766 3.04431 19.0689 4.93933C20.9612 6.83436 22.0027 9.34288 22 12.0068C22 13.3456 21.7382 14.6462 21.2229 15.8732C21.043 16.3013 21.0075 16.7894 21.1248 17.2529L21.1329 17.2474ZM12.0057 4.21559H12.003C9.92527 4.21559 7.97026 5.0254 6.50332 6.49507C5.03366 7.96474 4.22384 9.91975 4.22384 11.9975C4.22384 14.067 5.03638 16.0193 6.5115 17.4917C7.98662 18.9641 9.93618 19.7793 12.0084 19.7739C13.05 19.7739 14.0616 19.5694 15.0132 19.1713C15.8803 18.8059 16.8673 18.735 17.7917 18.9641L19.0078 19.2667C19.1714 19.3076 19.3186 19.1604 19.2777 18.9968L18.975 17.7807C18.7433 16.8564 18.8169 15.8693 19.1795 15.0022C19.5804 14.0506 19.7821 13.039 19.7821 11.9975C19.7821 9.92793 18.9723 7.97564 17.4999 6.50052C16.0275 5.0254 14.0752 4.21559 12.0057 4.21286V4.21559ZM6.20628 11.9928C6.20628 12.7374 6.81476 13.3459 7.55934 13.3459C8.30392 13.3459 8.91239 12.7374 8.91239 11.9928C8.91239 11.2493 8.30392 10.6408 7.55934 10.6408C6.81476 10.6408 6.20628 11.2493 6.20628 11.9928ZM10.6869 11.9928C10.6869 12.7374 11.2963 13.3459 12.0399 13.3459C12.7845 13.3459 13.393 12.7374 13.393 11.9928C13.393 11.2493 12.7845 10.6408 12.0399 10.6408C11.2963 10.6408 10.6869 11.2493 10.6869 11.9928ZM16.5209 13.3459C15.7763 13.3459 15.1679 12.7374 15.1679 11.9928C15.1679 11.2493 15.7763 10.6408 16.5209 10.6408C17.2645 10.6408 17.874 11.2493 17.874 11.9928C17.874 12.7374 17.2645 13.3459 16.5209 13.3459Z" fill="#313234"/>
</svg>

<svg xmlns="http://www.w3.org/2000/svg" width="24" height="24" fill="none" viewBox="0 0 24 24"><path fill="#313234" fill-rule="evenodd" d="m21.133 17.247.483 1.934a1.99 1.99 0 0 1-.527 1.9 1.99 1.99 0 0 1-1.9.526l-1.933-.482a2.2 2.2 0 0 0-1.38.098 9.9 9.9 0 0 1-3.867.777h-.005a9.95 9.95 0 0 1-7.065-2.931A9.93 9.93 0 0 1 2 12.004a9.94 9.94 0 0 1 2.928-7.076A9.94 9.94 0 0 1 12.001 2h.003a9.92 9.92 0 0 1 7.065 2.94A9.93 9.93 0 0 1 22 12.006c0 1.339-.262 2.64-.777 3.866a2.2 2.2 0 0 0-.098 1.38zM12.006 4.216h-.003c-2.078 0-4.033.81-5.5 2.28a7.73 7.73 0 0 0-2.28 5.502c0 2.069.813 4.021 2.289 5.494a7.7 7.7 0 0 0 5.496 2.282 7.75 7.75 0 0 0 3.005-.603 4.45 4.45 0 0 1 2.779-.207l1.216.303c.163.04.31-.107.27-.27l-.303-1.216a4.45 4.45 0 0 1 .204-2.779c.401-.951.603-1.963.603-3.004 0-2.07-.81-4.022-2.282-5.497a7.73 7.73 0 0 0-5.494-2.288zm-5.8 7.777c0 .744.609 1.353 1.353 1.353.745 0 1.353-.609 1.353-1.353S8.304 10.64 7.56 10.64c-.744 0-1.353.608-1.353 1.352m4.48 0c0 .744.61 1.353 1.354 1.353s1.353-.609 1.353-1.353-.609-1.352-1.353-1.352-1.353.608-1.353 1.352m5.835 1.353a1.356 1.356 0 0 1-1.353-1.353c0-.744.608-1.352 1.353-1.352.744 0 1.353.608 1.353 1.352s-.61 1.353-1.353 1.353" clip-rule="evenodd"/></svg>
